assets/icons/qvision/no_cell.svg

<svg width="24" height="24" viewBox="0 0 24 24" fill="none" xmlns="http://www.w3.org/2000/svg">
<g clip-path="url(#clip0_147_6236)">
<path d="M8.83014 6L5.13014 2.3C5.42014 1.55 6.15014 1 7.00014 1L17.0001 1.01C18.1001 1.01 19.0001 1.9 19.0001 3V16.17L17.0001 14.17V6H8.83014ZM19.7801 22.61L18.8701 21.7C18.5801 22.45 17.8501 23 17.0001 23H7.00014C5.90014 23 5.00014 22.1 5.00014 21V7.83L1.39014 4.22L2.80014 2.81L21.1801 21.19L19.7801 22.61ZM15.1701 18L7.00014 9.83V18H15.1701Z" fill="#323232"/>
</g>
<defs>
<clipPath id="clip0_147_6236">
<rect width="24" height="24" fill="white"/>
</clipPath>
</defs>
</svg>

<svg xmlns="http://www.w3.org/2000/svg" enable-background="new 0 0 24 24" height="24" viewBox="0 0 24 24" width="24"><g><rect fill="none" height="24" width="24"/><path d="M8.83,6l-3.7-3.7C5.42,1.55,6.15,1,7,1l10,0.01c1.1,0,2,0.89,2,1.99v13.17l-2-2V6H8.83z M19.78,22.61l-0.91-0.91 C18.58,22.45,17.85,23,17,23H7c-1.1,0-2-0.9-2-2V7.83L1.39,4.22l1.41-1.41l18.38,18.38L19.78,22.61z M15.17,18L7,9.83V18H15.17z"/></g></svg>
